build/img/sprites/chalkboardTeacher.svg

<svg width="24" height="24" viewBox="0 0 24 24" fill="none" xmlns="http://www.w3.org/2000/svg">
<path d="M20.25 3.75H3.75C3.35218 3.75 2.97064 3.90804 2.68934 4.18934C2.40804 4.47064 2.25 4.85218 2.25 5.25V18.75C2.25 19.1478 2.40804 19.5294 2.68934 19.8107C2.97064 20.092 3.35218 20.25 3.75 20.25H5.00531C5.14726 20.25 5.2863 20.2098 5.40628 20.134C5.52627 20.0581 5.62227 19.9498 5.68313 19.8216C6.04783 19.0516 6.62363 18.4009 7.34357 17.9453C8.06351 17.4897 8.898 17.2478 9.75 17.2478C10.602 17.2478 11.4365 17.4897 12.1564 17.9453C12.8764 18.4009 13.4522 19.0516 13.8169 19.8216C13.8777 19.9498 13.9737 20.0581 14.0937 20.134C14.2137 20.2098 14.3527 20.25 14.4947 20.25H20.25C20.6478 20.25 21.0294 20.092 21.3107 19.8107C21.592 19.5294 21.75 19.1478 21.75 18.75V5.25C21.75 4.85218 21.592 4.47064 21.3107 4.18934C21.0294 3.90804 20.6478 3.75 20.25 3.75ZM7.5 13.5C7.5 13.055 7.63196 12.62 7.87919 12.25C8.12643 11.88 8.47783 11.5916 8.88896 11.4213C9.3001 11.251 9.7525 11.2064 10.189 11.2932C10.6254 11.38 11.0263 11.5943 11.341 11.909C11.6557 12.2237 11.87 12.6246 11.9568 13.061C12.0436 13.4975 11.999 13.9499 11.8287 14.361C11.6584 14.7722 11.37 15.1236 11 15.3708C10.63 15.618 10.195 15.75 9.75 15.75C9.15326 15.75 8.58097 15.5129 8.15901 15.091C7.73705 14.669 7.5 14.0967 7.5 13.5ZM20.25 18.75H14.9466C14.3203 17.6732 13.3762 16.8165 12.2438 16.2975C12.8115 15.792 13.2122 15.1258 13.3927 14.3874C13.5732 13.649 13.5251 12.8731 13.2546 12.1627C12.9842 11.4522 12.5042 10.8408 11.8783 10.4093C11.2524 9.97787 10.5102 9.74684 9.75 9.74684C8.98982 9.74684 8.24758 9.97787 7.6217 10.4093C6.99581 10.8408 6.51582 11.4522 6.24536 12.1627C5.9749 12.8731 5.92675 13.649 6.10728 14.3874C6.28782 15.1258 6.68851 15.792 7.25625 16.2975C6.12385 16.8165 5.17975 17.6732 4.55344 18.75H3.75V5.25H20.25V18.75ZM5.25 9V7.5C5.25 7.30109 5.32902 7.11032 5.46967 6.96967C5.61032 6.82902 5.80109 6.75 6 6.75H18C18.1989 6.75 18.3897 6.82902 18.5303 6.96967C18.671 7.11032 18.75 7.30109 18.75 7.5V16.5C18.75 16.6989 18.671 16.8897 18.5303 17.0303C18.3897 17.171 18.1989 17.25 18 17.25H16.5C16.3011 17.25 16.1103 17.171 15.9697 17.0303C15.829 16.8897 15.75 16.6989 15.75 16.5C15.75 16.3011 15.829 16.1103 15.9697 15.9697C16.1103 15.829 16.3011 15.75 16.5 15.75H17.25V8.25H6.75V9C6.75 9.19891 6.67098 9.38968 6.53033 9.53033C6.38968 9.67098 6.19891 9.75 6 9.75C5.80109 9.75 5.61032 9.67098 5.46967 9.53033C5.32902 9.38968 5.25 9.19891 5.25 9Z" fill="white"/>
</svg>

<svg width="24" height="24" viewBox="0 0 24 24" fill="none" xmlns="http://www.w3.org/2000/svg"><path d="M20.25 3.75H3.75a1.5 1.5 0 00-1.5 1.5v13.5a1.5 1.5 0 001.5 1.5h1.255a.75.75 0 00.678-.428 4.5 4.5 0 018.134 0 .75.75 0 00.678.428h5.755a1.5 1.5 0 001.5-1.5V5.25a1.5 1.5 0 00-1.5-1.5zM7.5 13.5a2.25 2.25 0 114.5 0 2.25 2.25 0 01-4.5 0zm12.75 5.25h-5.303a6.036 6.036 0 00-2.703-2.453 3.75 3.75 0 10-4.988 0 6.036 6.036 0 00-2.703 2.453H3.75V5.25h16.5v13.5zM5.25 9V7.5A.75.75 0 016 6.75h12a.75.75 0 01.75.75v9a.75.75 0 01-.75.75h-1.5a.75.75 0 110-1.5h.75v-7.5H6.75V9a.75.75 0 01-1.5 0z" fill="#fff"/></svg>
